build/img/sale-arrow.svg

<svg width="22" height="18" viewBox="0 0 22 18" fill="none" xmlns="http://www.w3.org/2000/svg">
<path d="M21.3147 16.1976C21.4519 16.1048 21.4878 15.9182 21.3949 15.781L19.8812 13.5453C19.7883 13.4081 19.6018 13.3721 19.4646 13.465C19.3274 13.5579 19.2915 13.7444 19.3844 13.8816L20.7299 15.869L18.7425 17.2145C18.6053 17.3074 18.5694 17.4939 18.6623 17.6311C18.7552 17.7683 18.9417 17.8042 19.0789 17.7113L21.3147 16.1976ZM1.08238 0.820637C1.05654 0.656978 0.902929 0.545248 0.739269 0.571081C0.575611 0.596914 0.463881 0.750528 0.489714 0.914187L1.08238 0.820637ZM21.2032 15.6546C12.7997 14.0363 7.93665 11.3384 5.09461 8.55439C2.25712 5.77487 1.40808 2.88405 1.08238 0.820637L0.489714 0.914187C0.828905 3.06302 1.71885 6.0875 4.67474 8.98301C7.62609 11.8741 12.6108 14.6109 21.0898 16.2438L21.2032 15.6546Z" fill="#36373C"/>
</svg>

<svg width="22" height="18" fill="none" xmlns="http://www.w3.org/2000/svg"><path d="M21.315 16.198a.3.3 0 0 0 .08-.417l-1.514-2.236a.3.3 0 1 0-.497.337l1.346 1.987-1.988 1.346a.3.3 0 1 0 .337.496l2.236-1.513ZM1.082.82A.3.3 0 0 0 .49.914l.592-.093Zm20.121 14.834c-8.403-1.619-13.266-4.317-16.108-7.1C2.257 5.774 1.408 2.884 1.082.82L.49.914c.339 2.149 1.229 5.174 4.185 8.069 2.951 2.891 7.936 5.628 16.415 7.26l.113-.588Z" fill="#36373C"/></svg>
